X:123
T: ECK FACH MUINEN HEREN VAN FALKENSTEUN
N: E0062A
O: Europa, Mitteleuropa, Deutschland, Lippe - Detmold
R: erzaehlendes Volks - Lied, Ritter - Sage
M: 6/8
L: 1/8
K: F
F | cdcAGF | Bcdc2
F | c2cfed | d3cz
F | cdcAGF | Bcdc2
F | c2cfed | d3c2c | G3F2

